X:1
T:Adoramus te Christe - Rosselli
T:#
%%score [ 1 2 3 4 ]
L:1/8
Q:1/4=300
M:none
K:C
V:1 treble nm="S" snm="S"
V:2 treble nm="A" snm="A"
V:3 treble-8 nm="T" snm="T"
V:4 bass nm="B" snm="B"
V:1
"^Adoramus te Christe""^Francesco Rosselli\n(c.1510-1577)" G16 | ^G16 | A16 | =G16 | G12 (G4- | %5
w: A-|do-|ra-|mus|te Chri\-|
 G4 F2 E2 D8) | E16 | !fermata!z8 G8 | G16 | A16 | B12 B4 | c8 c8 | B16 | !fermata!z8 c8- | %14
w: |ste,|et|be-|ne-|di- ci-|mus ti-|bi:|qui\-|
 c8 B8- |[M:4/2] B8 A8- | A8 A8- | A4 A4 A8 | A16 | G16 | G16 | F12 E4 | E8 E8 | D16 | D16 | %25
w: * a|* per|* san\-|* ctam cru-|cem|tu-|am|re- de-|mi- sti|mun-|dum.|
 !fermata!z8 E8 | E4 E4 E8 | F16 | F16 | E16 | G12 G4 | G16 | A12 G4 | F16 | E12 (A4- | %35
w: Qui|pas- sus es|pro|no-|bis,|Do- mi-|ne,|mi- se-|re-|re no\-|
 A2 G2 G8 ^F4) | !fermata!G16 |[Q:1/4=294] G12[Q:1/4=287] A4 | %38
w: |bis,|mi- se-|
[Q:1/4=283] (B6[Q:1/4=280] c2[Q:1/4=277] d4)[Q:1/4=274] B4 |[Q:1/4=266] c16 | %40
w: re\- * * re|no-|
[Q:1/4=260] !fermata!B16 |] %41
w: bis.|
V:2
 D16 | E16 | E16 | E16 | D16 | (B,4 C8 B,4) | C16 | !fermata!z8 E8 | E16 | ^F16 | G12 G4 | %11
w: A-|do-|ra-|mus|te|Chri\- * *|ste,|et|be-|ne-|di- ci-|
 E12 ^F4 | G16 | !fermata!z8 G8- | G8 G8- |[M:4/2] G8 E8- | E8 F8- | F4 F4 F8 | F16 | D16 | E16 | %21
w: mus ti-|bi:|qui\-|* a|* per|* san\-|* ctam cru-|cem|tu-|am|
 D12 C4 | C8 C8 | A,16 | B,16 | !fermata!z8 C8 | C4 C4 C8 | C16 | D16 | E16 | E12 D4 | D16 | %32
w: re- de-|mi- sti|mun-|dum.|Qui|pas- sus es|pro|no-|bis,|Do- mi-|ne,|
 F12 E4 | D16 | (C6 B,2 A,2 B,2 C2 D2) | (E8 D8) | !fermata!B,16 | G,6 A,2 (B,6 C2) | D16 | E16 | %40
w: mi- se-|re-|re * * * * *|no\- *|bis,|mi- se- re\- *|re|no-|
 !fermata!D16 |] %41
w: bis.|
V:3
 B16 | B16 | c16 | c16 | B16 | G16 | G16 | !fermata!z8 c8 | B16 | d16 | d12 e4 | c8 c8 | d16 | %13
w: A-|do-|ra-|mus|te|Chri-|ste,|et|be-|ne-|di- ci-|mus ti-|bi:|
 !fermata!z8 e8- | e8 d8- |[M:4/2][K:treble-8] d8 c8- | c8 c8- | c4 c4 c8 | c16 | B16 | c16 | %21
w: qui\-|* a|* per|* san\-|* ctam cru-|cem|tu-|am|
 A12 A4 | G12 G4 | ^F16 | G16 | !fermata!z8 G8 | G4 G4 G8 | A16 | (F6 G2 A6 B2) | c16 | c12 B4 | %31
w: re- de-|mi- sti|mun-|dum.|Qui|pas- sus es|pro|no\- * * *|bis,|Do- mi-|
 B16 | c12 c4 | A16- | A8 c8 | (c8 A8) | !fermata!G16 | G12 G4 | G12 G4 | G16 | !fermata!G16 |] %41
w: ne,|mi- se-|re\-|* re|no\- *|bis,|mi- se-|re- re|no-|bis.|
V:4
 G,16 | E,16 | A,,16 | C,16 | G,,16 | G,,16 | C,16 | !fermata!z8 C,8 | E,16 | D,16 | G,12 E,4 | %11
w: A-|do-|ra-|mus|te|Chri-|ste,|et|be-|ne-|di- ci-|
 A,8 A,8 | G,16 | !fermata!z8 C,8- | C,8 G,8- |[M:4/2] G,8 A,8- | A,8 F,8- | F,4 F,4 F,8 | F,16 | %19
w: mus ti-|bi:|qui\-|* a|* per|* san\-|* ctam cru-|cem|
 G,16 | C,16 | D,12 A,,4 | C,8 C,8 | D,16 | G,,16 | !fermata!z8 C,8 | C,4 C,4 C,8 | F,16 | D,16 | %29
w: tu-|am|re- de-|mi- sti|mun-|dum.|Qui|pas- sus es|pro|no-|
 C,16 | C,12 G,4 | G,16 | F,12 C,4 | D,16 | A,,16 | (C,8 D,8) | !fermata!G,,16 | G,,12 G,,4 | %38
w: bis,|Do- mi-|ne,|mi- se-|re-|re|no\- *|bis,|mi- se-|
 G,,12 G,,4 | C,16 | !fermata!G,,16 |] %41
w: re- re|no-|bis.|

